icons/suitcase-3-fill.svg

<svg viewBox="0 0 24 24" fill="currentColor" xmlns="http://www.w3.org/2000/svg">
    <path d="M15 1C15.5523 1 16 1.44772 16 2V7H17V6H19V7H20C20.5523 7 21 7.44772 21 8V20C21 20.5523 20.5523 21 20 21H19V22H17V21H7V22H5V21H4C3.44772 21 3 20.5523 3 20V8C3 7.44772 3.44772 7 4 7H5V6H7V7H8V2C8 1.44772 8.44772 1 9 1H15ZM9 10H7V18H9V10ZM13 10H11V18H13V10ZM17 10H15V18H17V10ZM14 3H10V7H14V3Z"/>
</svg>

<svg xmlns="http://www.w3.org/2000/svg" viewBox="0 0 24 24">
    <g>
        <path fill="none" d="M0 0H24V24H0z"/>
        <path d="M15 1c.552 0 1 .448 1 1v5h1V6h2v1h1c.552 0 1 .448 1 1v12c0 .552-.448 1-1 1h-1v1h-2v-1H7v1H5v-1H4c-.552 0-1-.448-1-1V8c0-.552.448-1 1-1h1V6h2v1h1V2c0-.552.448-1 1-1h6zm-6 9H7v8h2v-8zm4 0h-2v8h2v-8zm4 0h-2v8h2v-8zm-3-7h-4v4h4V3z"/>
    </g>
</svg>
